app/assets/images/payment_icons/oxxo.svg

<?xml version="1.0" encoding="UTF-8"?>
<svg width="38" height="24" viewBox="0 0 38 24" version="1.1" xmlns="http://www.w3.org/2000/svg"
     xmlns:xlink="http://www.w3.org/1999/xlink" aria-labelledby="pi-oxxo">
    <title id="pi-oxxo">oxxo</title>
    <g id="oxxo" stroke="none" stroke-width="1" fill="none" fill-rule="evenodd">
        <g id="oxxo">
            <path d="M31.9851692,0 L4,0 C1.79086154,0 0,1.79086154 0,4 L0,20.0000308 C0,22.2091385 1.79086154,24 4,24 L31.9851692,24 C34.1942769,24 35.9851385,22.2091385 35.9851385,20.0000308 L35.9851385,4 C35.9851385,1.79086154 34.1942769,0 31.9851692,0 Z" id="路径" fill="#B0BECB" fill-rule="nonzero"></path>
            <polygon id="oxxo" fill="#FFFFFF" points="0.102370154 19.0715077 35.7910154 19.0715077 35.7910154 5.81782154 0.102370154 5.81782154"></polygon>
            <path d="M30.3476308,9.25993846 C28.7147077,9.25993846 27.3836308,10.5948 27.3836308,12.2319692 C27.3836308,13.8685846 28.7147077,15.2034462 30.3476308,15.2034462 C31.98,15.2034462 33.3111692,13.8685846 33.3111692,12.2319692 C33.3111692,10.5948 31.98,9.25993846 30.3476308,9.25993846 Z" id="路径" fill="#A1B1C2"></path>
            <path d="M5.91819692,9.25993846 C4.28512615,9.25993846 2.95403077,10.5948 2.95403077,12.2319692 C2.95403077,13.8685846 4.28512615,15.2034462 5.91819692,15.2034462 C7.55044615,15.2034462 8.88175385,13.8685846 8.88175385,12.2319692 C8.88175385,10.5948 7.55044615,9.25993846 5.91819692,9.25993846 Z" id="路径" fill="#A1B1C2"></path>
            <path d="M30.1148308,6.64466769 C27.3712615,6.58134462 26.0813538,8.34538154 24.2090769,10.5211385 L22.4432308,12.5732308 L25.2396,15.9299077 C25.9058769,16.9613538 24.6342462,17.9848615 23.8453846,17.0412 L21.2599385,13.9488 L18.7404923,16.8772615 C17.9381538,17.8093846 16.6809231,16.7679692 17.3614154,15.7462154 L20.0965846,12.5573538 L18.3047077,10.4139692 L19.4572615,8.98266462 L21.2796,11.1775385 L22.8505846,9.34550769 C23.6211692,8.44717846 24.4072615,7.25670462 25.4260615,6.64466769 L0.102370154,6.64466769 L0.102370154,18.2450769 L6.02319692,18.2450769 C8.76723692,18.2450769 10.0128923,16.5999692 11.8341231,14.3816308 L13.5528923,12.2888308 L10.6793538,8.99813538 C9.99009231,7.98235385 11.2375385,6.92991692 12.048,7.85509846 L14.7036923,10.8869538 L17.1559385,7.90091077 C17.9363077,6.95006769 19.2168923,7.9626 18.5601231,8.99976923 L15.8991692,12.2515385 L17.7399692,14.3527385 L16.5800308,15.7299692 L14.7477231,13.6578462 L13.2196615,15.5253231 C12.4695692,16.4413846 11.7102462,17.6094462 10.7057538,18.2450769 L35.7910154,18.2450769 L35.7910154,6.64466769 L30.1148308,6.64466769 Z M10.6003385,12.2319692 C10.6003385,14.8179692 8.49736615,16.9269231 5.91820615,16.9269231 C3.33844615,16.9269231 1.23528,14.8179692 1.23528,12.2319692 C1.23528,9.64541538 3.33844615,7.53685846 5.91820615,7.53685846 C8.49736615,7.53685846 10.6003385,9.64541538 10.6003385,12.2319692 Z M30.3475385,16.9269231 C27.7681846,16.9269231 25.6646769,14.8179692 25.6646769,12.2319692 C25.6646769,9.64541538 27.7681846,7.53685846 30.3475385,7.53685846 C32.9268923,7.53685846 35.0299385,9.64541538 35.0299385,12.2319692 C35.0299385,14.8179692 32.9268923,16.9269231 30.3475385,16.9269231 Z" id="形状" fill="#A1B1C2"></path>
            <path d="M31.9851692,0 L4,0 C1.79086154,0 0,1.79086154 0,4 L0,20.0000308 C0,22.2091385 1.79086154,24 4,24 L31.9851692,24 C34.1942769,24 35.9851385,22.2091385 35.9851385,20.0000308 L35.9851385,4 C35.9851385,1.79086154 34.1942769,0 31.9851692,0 Z" id="路径" fill="#FAAE31" fill-rule="nonzero"></path>
            <polygon id="路径" fill="#FFFFFF" points="0.102370154 19.0715077 35.7910154 19.0715077 35.7910154 5.81782154 0.102370154 5.81782154"></polygon>
            <path d="M30.3476308,9.25993846 C28.7147077,9.25993846 27.3836308,10.5948 27.3836308,12.2319692 C27.3836308,13.8685846 28.7147077,15.2034462 30.3476308,15.2034462 C31.98,15.2034462 33.3111692,13.8685846 33.3111692,12.2319692 C33.3111692,10.5948 31.98,9.25993846 30.3476308,9.25993846 Z" id="路径" fill="#DF2131"></path>
            <path d="M5.91819692,9.25993846 C4.28512615,9.25993846 2.95403077,10.5948 2.95403077,12.2319692 C2.95403077,13.8685846 4.28512615,15.2034462 5.91819692,15.2034462 C7.55044615,15.2034462 8.88175385,13.8685846 8.88175385,12.2319692 C8.88175385,10.5948 7.55044615,9.25993846 5.91819692,9.25993846 Z" id="路径" fill="#DF2131"></path>
            <path d="M30.1148308,6.64466769 C27.3712615,6.58134462 26.0813538,8.34538154 24.2090769,10.5211385 L22.4432308,12.5732308 L25.2396,15.9299077 C25.9058769,16.9613538 24.6342462,17.9848615 23.8453846,17.0412 L21.2599385,13.9488 L18.7404923,16.8772615 C17.9381538,17.8093846 16.6809231,16.7679692 17.3614154,15.7462154 L20.0965846,12.5573538 L18.3047077,10.4139692 L19.4572615,8.98266462 L21.2796,11.1775385 L22.8505846,9.34550769 C23.6211692,8.44717846 24.4072615,7.25670462 25.4260615,6.64466769 L0.102370154,6.64466769 L0.102370154,18.2450769 L6.02319692,18.2450769 C8.76723692,18.2450769 10.0128923,16.5999692 11.8341231,14.3816308 L13.5528923,12.2888308 L10.6793538,8.99813538 C9.99009231,7.98235385 11.2375385,6.92991692 12.048,7.85509846 L14.7036923,10.8869538 L17.1559385,7.90091077 C17.9363077,6.95006769 19.2168923,7.9626 18.5601231,8.99976923 L15.8991692,12.2515385 L17.7399692,14.3527385 L16.5800308,15.7299692 L14.7477231,13.6578462 L13.2196615,15.5253231 C12.4695692,16.4413846 11.7102462,17.6094462 10.7057538,18.2450769 L35.7910154,18.2450769 L35.7910154,6.64466769 L30.1148308,6.64466769 Z M10.6003385,12.2319692 C10.6003385,14.8179692 8.49736615,16.9269231 5.91820615,16.9269231 C3.33844615,16.9269231 1.23528,14.8179692 1.23528,12.2319692 C1.23528,9.64541538 3.33844615,7.53685846 5.91820615,7.53685846 C8.49736615,7.53685846 10.6003385,9.64541538 10.6003385,12.2319692 Z M30.3475385,16.9269231 C27.7681846,16.9269231 25.6646769,14.8179692 25.6646769,12.2319692 C25.6646769,9.64541538 27.7681846,7.53685846 30.3475385,7.53685846 C32.9268923,7.53685846 35.0299385,9.64541538 35.0299385,12.2319692 C35.0299385,14.8179692 32.9268923,16.9269231 30.3475385,16.9269231 Z" id="形状" fill="#DF2131"></path>
        </g>
    </g>
</svg>

<svg xmlns="http://www.w3.org/2000/svg" width="38" height="24" aria-labelledby="pi-oxxo" role="img" aria-labelledby="pi-oxxo"><title id="pi-oxxo">OXXO</title><g id="pi-oxxo" stroke="none" stroke-width="1" fill="none" fill-rule="evenodd"><g id="oxxo"><path d="M31.985 0H4a4 4 0 00-4 4v16a4 4 0 004 4h27.985a4 4 0 004-4V4a4 4 0 00-4-4z" fill="#B0BECB" fill-rule="nonzero"/><path fill="#FFF" d="M.102 19.072h35.689V5.818H.102z"/><path d="M30.348 9.26a2.973 2.973 0 00-2.964 2.972 2.973 2.973 0 002.964 2.971 2.973 2.973 0 002.963-2.971 2.973 2.973 0 00-2.963-2.972zM5.918 9.26a2.973 2.973 0 00-2.964 2.972 2.973 2.973 0 002.964 2.971 2.973 2.973 0 002.964-2.971A2.973 2.973 0 005.918 9.26z" fill="#A1B1C2"/><path d="M30.115 6.645c-2.744-.064-4.034 1.7-5.906 3.876l-1.766 2.052 2.797 3.357c.666 1.031-.606 2.055-1.395 1.111L21.26 13.95l-2.52 2.928c-.802.932-2.06-.109-1.379-1.13l2.736-3.19-1.792-2.143 1.152-1.431 1.823 2.195 1.57-1.832c.771-.899 1.557-2.09 2.576-2.701H.102v11.6h5.921c2.744 0 3.99-1.645 5.811-3.863l1.719-2.093-2.874-3.29c-.689-1.017.559-2.07 1.369-1.144l2.656 3.032 2.452-2.986c.78-.95 2.06.062 1.404 1.099l-2.66 3.252 1.84 2.1-1.16 1.378-1.832-2.072-1.528 1.867c-.75.916-1.51 2.084-2.514 2.72H35.79v-11.6h-5.676zM10.6 12.232c0 2.586-2.103 4.695-4.682 4.695-2.58 0-4.683-2.109-4.683-4.695 0-2.587 2.103-4.695 4.683-4.695 2.58 0 4.682 2.108 4.682 4.695zm19.748 4.695c-2.58 0-4.683-2.109-4.683-4.695 0-2.587 2.103-4.695 4.683-4.695 2.579 0 4.682 2.108 4.682 4.695 0 2.586-2.103 4.695-4.682 4.695z" id="形状" fill="#A1B1C2"/><path d="M31.985 0H4a4 4 0 00-4 4v16a4 4 0 004 4h27.985a4 4 0 004-4V4a4 4 0 00-4-4z" fill="#FAAE31" fill-rule="nonzero"/><path fill="#FFF" d="M.102 19.072h35.689V5.818H.102z"/><path d="M30.348 9.26a2.973 2.973 0 00-2.964 2.972 2.973 2.973 0 002.964 2.971 2.973 2.973 0 002.963-2.971 2.973 2.973 0 00-2.963-2.972zM5.918 9.26a2.973 2.973 0 00-2.964 2.972 2.973 2.973 0 002.964 2.971 2.973 2.973 0 002.964-2.971A2.973 2.973 0 005.918 9.26z" fill="#DF2131"/><path d="M30.115 6.645c-2.744-.064-4.034 1.7-5.906 3.876l-1.766 2.052 2.797 3.357c.666 1.031-.606 2.055-1.395 1.111L21.26 13.95l-2.52 2.928c-.802.932-2.06-.109-1.379-1.13l2.736-3.19-1.792-2.143 1.152-1.431 1.823 2.195 1.57-1.832c.771-.899 1.557-2.09 2.576-2.701H.102v11.6h5.921c2.744 0 3.99-1.645 5.811-3.863l1.719-2.093-2.874-3.29c-.689-1.017.559-2.07 1.369-1.144l2.656 3.032 2.452-2.986c.78-.95 2.06.062 1.404 1.099l-2.66 3.252 1.84 2.1-1.16 1.378-1.832-2.072-1.528 1.867c-.75.916-1.51 2.084-2.514 2.72H35.79v-11.6h-5.676zM10.6 12.232c0 2.586-2.103 4.695-4.682 4.695-2.58 0-4.683-2.109-4.683-4.695 0-2.587 2.103-4.695 4.683-4.695 2.58 0 4.682 2.108 4.682 4.695zm19.748 4.695c-2.58 0-4.683-2.109-4.683-4.695 0-2.587 2.103-4.695 4.683-4.695 2.579 0 4.682 2.108 4.682 4.695 0 2.586-2.103 4.695-4.682 4.695z" id="形状" fill="#DF2131"/></g></g></svg>
